svgs/solid/gopuram.svg

<svg xmlns="http://www.w3.org/2000/svg" viewBox="0 0 512 512"><!-- Font Awesome Pro 6.0.0-alpha2 by @fontawesome - https://fontawesome.com License - https://fontawesome.com/license (Commercial License) --><path d="M496 352H480V240C480 231.25 472.75 224 464 224H448V144C448 135.25 440.75 128 432 128H416V16C416 7.25 408.75 0 400 0S384 7.25 384 16V32H320V16C320 7.25 312.75 0 304 0S288 7.25 288 16V32H224V16C224 7.25 216.75 0 208 0S192 7.25 192 16V32H128V16C128 7.25 120.75 0 112 0S96 7.25 96 16V128H80C71.25 128 64 135.25 64 144V224H48C39.25 224 32 231.25 32 240V352H16C7.25 352 0 359.25 0 368V496C0 504.75 7.25 512 16 512H96V352H128V224H160V128H192V224H160V352H128V512H208V432C208 423.25 215.25 416 224 416H288C296.75 416 304 423.25 304 432V512H384V352H352V224H320V128H352V224H384V352H416V512H496C504.75 512 512 504.75 512 496V368C512 359.25 504.75 352 496 352ZM232 176C232 167.25 239.25 160 248 160H264C272.75 160 280 167.25 280 176V224H232V176ZM288 352H224V288C224 279.25 231.25 272 240 272H272C280.75 272 288 279.25 288 288V352Z"/></svg>

<svg xmlns="http://www.w3.org/2000/svg" viewBox="0 0 512 512"><!-- Font Awesome Pro 5.15.1 by @fontawesome - https://fontawesome.com License - https://fontawesome.com/license (Commercial License) --><path d="M496 352h-16V240c0-8.8-7.2-16-16-16h-16v-80c0-8.8-7.2-16-16-16h-16V16c0-8.8-7.2-16-16-16s-16 7.2-16 16v16h-64V16c0-8.8-7.2-16-16-16s-16 7.2-16 16v16h-64V16c0-8.8-7.2-16-16-16s-16 7.2-16 16v16h-64V16c0-8.8-7.2-16-16-16S96 7.2 96 16v112H80c-8.8 0-16 7.2-16 16v80H48c-8.8 0-16 7.2-16 16v112H16c-8.8 0-16 7.2-16 16v128c0 8.8 7.2 16 16 16h80V352h32V224h32v-96h32v96h-32v128h-32v160h80v-80c0-8.8 7.2-16 16-16h64c8.8 0 16 7.2 16 16v80h80V352h-32V224h-32v-96h32v96h32v128h32v160h80c8.8 0 16-7.2 16-16V368c0-8.8-7.2-16-16-16zM232 176c0-8.8 7.2-16 16-16h16c8.8 0 16 7.2 16 16v48h-48zm56 176h-64v-64c0-8.8 7.2-16 16-16h32c8.8 0 16 7.2 16 16z"/></svg>
